svgs/thin/grid-5.svg

<svg xmlns="http://www.w3.org/2000/svg" viewBox="0 0 448 512"><!--! Font Awesome Pro 6.6.0 by @fontawesome - https://fontawesome.com License - https://fontawesome.com/license (Commercial License) Copyright 2024 Fonticons, Inc. --><path d="M48 44.8c1.8 0 3.2 1.4 3.2 3.2l0 32c0 1.8-1.4 3.2-3.2 3.2l-32 0c-1.8 0-3.2-1.4-3.2-3.2l0-32c0-1.8 1.4-3.2 3.2-3.2l32 0zM16 32C7.2 32 0 39.2 0 48L0 80c0 8.8 7.2 16 16 16l32 0c8.8 0 16-7.2 16-16l0-32c0-8.8-7.2-16-16-16L16 32zM48 140.8c1.8 0 3.2 1.4 3.2 3.2l0 32c0 1.8-1.4 3.2-3.2 3.2l-32 0c-1.8 0-3.2-1.4-3.2-3.2l0-32c0-1.8 1.4-3.2 3.2-3.2l32 0zM16 128c-8.8 0-16 7.2-16 16l0 32c0 8.8 7.2 16 16 16l32 0c8.8 0 16-7.2 16-16l0-32c0-8.8-7.2-16-16-16l-32 0zm0 108.8l32 0c1.8 0 3.2 1.4 3.2 3.2l0 32c0 1.8-1.4 3.2-3.2 3.2l-32 0c-1.8 0-3.2-1.4-3.2-3.2l0-32c0-1.8 1.4-3.2 3.2-3.2zM0 240l0 32c0 8.8 7.2 16 16 16l32 0c8.8 0 16-7.2 16-16l0-32c0-8.8-7.2-16-16-16l-32 0c-8.8 0-16 7.2-16 16zm48 92.8c1.8 0 3.2 1.4 3.2 3.2l0 32c0 1.8-1.4 3.2-3.2 3.2l-32 0c-1.8 0-3.2-1.4-3.2-3.2l0-32c0-1.8 1.4-3.2 3.2-3.2l32 0zM16 320c-8.8 0-16 7.2-16 16l0 32c0 8.8 7.2 16 16 16l32 0c8.8 0 16-7.2 16-16l0-32c0-8.8-7.2-16-16-16l-32 0zm0 108.8l32 0c1.8 0 3.2 1.4 3.2 3.2l0 32c0 1.8-1.4 3.2-3.2 3.2l-32 0c-1.8 0-3.2-1.4-3.2-3.2l0-32c0-1.8 1.4-3.2 3.2-3.2zM0 432l0 32c0 8.8 7.2 16 16 16l32 0c8.8 0 16-7.2 16-16l0-32c0-8.8-7.2-16-16-16l-32 0c-8.8 0-16 7.2-16 16zM144 44.8c1.8 0 3.2 1.4 3.2 3.2l0 32c0 1.8-1.4 3.2-3.2 3.2l-32 0c-1.8 0-3.2-1.4-3.2-3.2l0-32c0-1.8 1.4-3.2 3.2-3.2l32 0zM112 32c-8.8 0-16 7.2-16 16l0 32c0 8.8 7.2 16 16 16l32 0c8.8 0 16-7.2 16-16l0-32c0-8.8-7.2-16-16-16l-32 0zm0 108.8l32 0c1.8 0 3.2 1.4 3.2 3.2l0 32c0 1.8-1.4 3.2-3.2 3.2l-32 0c-1.8 0-3.2-1.4-3.2-3.2l0-32c0-1.8 1.4-3.2 3.2-3.2zM96 144l0 32c0 8.8 7.2 16 16 16l32 0c8.8 0 16-7.2 16-16l0-32c0-8.8-7.2-16-16-16l-32 0c-8.8 0-16 7.2-16 16zm48 92.8c1.8 0 3.2 1.4 3.2 3.2l0 32c0 1.8-1.4 3.2-3.2 3.2l-32 0c-1.8 0-3.2-1.4-3.2-3.2l0-32c0-1.8 1.4-3.2 3.2-3.2l32 0zM112 224c-8.8 0-16 7.2-16 16l0 32c0 8.8 7.2 16 16 16l32 0c8.8 0 16-7.2 16-16l0-32c0-8.8-7.2-16-16-16l-32 0zm0 108.8l32 0c1.8 0 3.2 1.4 3.2 3.2l0 32c0 1.8-1.4 3.2-3.2 3.2l-32 0c-1.8 0-3.2-1.4-3.2-3.2l0-32c0-1.8 1.4-3.2 3.2-3.2zM96 336l0 32c0 8.8 7.2 16 16 16l32 0c8.8 0 16-7.2 16-16l0-32c0-8.8-7.2-16-16-16l-32 0c-8.8 0-16 7.2-16 16zm48 92.8c1.8 0 3.2 1.4 3.2 3.2l0 32c0 1.8-1.4 3.2-3.2 3.2l-32 0c-1.8 0-3.2-1.4-3.2-3.2l0-32c0-1.8 1.4-3.2 3.2-3.2l32 0zM112 416c-8.8 0-16 7.2-16 16l0 32c0 8.8 7.2 16 16 16l32 0c8.8 0 16-7.2 16-16l0-32c0-8.8-7.2-16-16-16l-32 0zM208 44.8l32 0c1.8 0 3.2 1.4 3.2 3.2l0 32c0 1.8-1.4 3.2-3.2 3.2l-32 0c-1.8 0-3.2-1.4-3.2-3.2l0-32c0-1.8 1.4-3.2 3.2-3.2zM192 48l0 32c0 8.8 7.2 16 16 16l32 0c8.8 0 16-7.2 16-16l0-32c0-8.8-7.2-16-16-16l-32 0c-8.8 0-16 7.2-16 16zm48 92.8c1.8 0 3.2 1.4 3.2 3.2l0 32c0 1.8-1.4 3.2-3.2 3.2l-32 0c-1.8 0-3.2-1.4-3.2-3.2l0-32c0-1.8 1.4-3.2 3.2-3.2l32 0zM208 128c-8.8 0-16 7.2-16 16l0 32c0 8.8 7.2 16 16 16l32 0c8.8 0 16-7.2 16-16l0-32c0-8.8-7.2-16-16-16l-32 0zm0 108.8l32 0c1.8 0 3.2 1.4 3.2 3.2l0 32c0 1.8-1.4 3.2-3.2 3.2l-32 0c-1.8 0-3.2-1.4-3.2-3.2l0-32c0-1.8 1.4-3.2 3.2-3.2zM192 240l0 32c0 8.8 7.2 16 16 16l32 0c8.8 0 16-7.2 16-16l0-32c0-8.8-7.2-16-16-16l-32 0c-8.8 0-16 7.2-16 16zm48 92.8c1.8 0 3.2 1.4 3.2 3.2l0 32c0 1.8-1.4 3.2-3.2 3.2l-32 0c-1.8 0-3.2-1.4-3.2-3.2l0-32c0-1.8 1.4-3.2 3.2-3.2l32 0zM208 320c-8.8 0-16 7.2-16 16l0 32c0 8.8 7.2 16 16 16l32 0c8.8 0 16-7.2 16-16l0-32c0-8.8-7.2-16-16-16l-32 0zm0 108.8l32 0c1.8 0 3.2 1.4 3.2 3.2l0 32c0 1.8-1.4 3.2-3.2 3.2l-32 0c-1.8 0-3.2-1.4-3.2-3.2l0-32c0-1.8 1.4-3.2 3.2-3.2zM192 432l0 32c0 8.8 7.2 16 16 16l32 0c8.8 0 16-7.2 16-16l0-32c0-8.8-7.2-16-16-16l-32 0c-8.8 0-16 7.2-16 16zM336 44.8c1.8 0 3.2 1.4 3.2 3.2l0 32c0 1.8-1.4 3.2-3.2 3.2l-32 0c-1.8 0-3.2-1.4-3.2-3.2l0-32c0-1.8 1.4-3.2 3.2-3.2l32 0zM304 32c-8.8 0-16 7.2-16 16l0 32c0 8.8 7.2 16 16 16l32 0c8.8 0 16-7.2 16-16l0-32c0-8.8-7.2-16-16-16l-32 0zm0 108.8l32 0c1.8 0 3.2 1.4 3.2 3.2l0 32c0 1.8-1.4 3.2-3.2 3.2l-32 0c-1.8 0-3.2-1.4-3.2-3.2l0-32c0-1.8 1.4-3.2 3.2-3.2zM288 144l0 32c0 8.8 7.2 16 16 16l32 0c8.8 0 16-7.2 16-16l0-32c0-8.8-7.2-16-16-16l-32 0c-8.8 0-16 7.2-16 16zm48 92.8c1.8 0 3.2 1.4 3.2 3.2l0 32c0 1.8-1.4 3.2-3.2 3.2l-32 0c-1.8 0-3.2-1.4-3.2-3.2l0-32c0-1.8 1.4-3.2 3.2-3.2l32 0zM304 224c-8.8 0-16 7.2-16 16l0 32c0 8.8 7.2 16 16 16l32 0c8.8 0 16-7.2 16-16l0-32c0-8.8-7.2-16-16-16l-32 0zm0 108.8l32 0c1.8 0 3.2 1.4 3.2 3.2l0 32c0 1.8-1.4 3.2-3.2 3.2l-32 0c-1.8 0-3.2-1.4-3.2-3.2l0-32c0-1.8 1.4-3.2 3.2-3.2zM288 336l0 32c0 8.8 7.2 16 16 16l32 0c8.8 0 16-7.2 16-16l0-32c0-8.8-7.2-16-16-16l-32 0c-8.8 0-16 7.2-16 16zm48 92.8c1.8 0 3.2 1.4 3.2 3.2l0 32c0 1.8-1.4 3.2-3.2 3.2l-32 0c-1.8 0-3.2-1.4-3.2-3.2l0-32c0-1.8 1.4-3.2 3.2-3.2l32 0zM304 416c-8.8 0-16 7.2-16 16l0 32c0 8.8 7.2 16 16 16l32 0c8.8 0 16-7.2 16-16l0-32c0-8.8-7.2-16-16-16l-32 0zM400 44.8l32 0c1.8 0 3.2 1.4 3.2 3.2l0 32c0 1.8-1.4 3.2-3.2 3.2l-32 0c-1.8 0-3.2-1.4-3.2-3.2l0-32c0-1.8 1.4-3.2 3.2-3.2zM384 48l0 32c0 8.8 7.2 16 16 16l32 0c8.8 0 16-7.2 16-16l0-32c0-8.8-7.2-16-16-16l-32 0c-8.8 0-16 7.2-16 16zm48 92.8c1.8 0 3.2 1.4 3.2 3.2l0 32c0 1.8-1.4 3.2-3.2 3.2l-32 0c-1.8 0-3.2-1.4-3.2-3.2l0-32c0-1.8 1.4-3.2 3.2-3.2l32 0zM400 128c-8.8 0-16 7.2-16 16l0 32c0 8.8 7.2 16 16 16l32 0c8.8 0 16-7.2 16-16l0-32c0-8.8-7.2-16-16-16l-32 0zm0 108.8l32 0c1.8 0 3.2 1.4 3.2 3.2l0 32c0 1.8-1.4 3.2-3.2 3.2l-32 0c-1.8 0-3.2-1.4-3.2-3.2l0-32c0-1.8 1.4-3.2 3.2-3.2zM384 240l0 32c0 8.8 7.2 16 16 16l32 0c8.8 0 16-7.2 16-16l0-32c0-8.8-7.2-16-16-16l-32 0c-8.8 0-16 7.2-16 16zm48 92.8c1.8 0 3.2 1.4 3.2 3.2l0 32c0 1.8-1.4 3.2-3.2 3.2l-32 0c-1.8 0-3.2-1.4-3.2-3.2l0-32c0-1.8 1.4-3.2 3.2-3.2l32 0zM400 320c-8.8 0-16 7.2-16 16l0 32c0 8.8 7.2 16 16 16l32 0c8.8 0 16-7.2 16-16l0-32c0-8.8-7.2-16-16-16l-32 0zm0 108.8l32 0c1.8 0 3.2 1.4 3.2 3.2l0 32c0 1.8-1.4 3.2-3.2 3.2l-32 0c-1.8 0-3.2-1.4-3.2-3.2l0-32c0-1.8 1.4-3.2 3.2-3.2zM384 432l0 32c0 8.8 7.2 16 16 16l32 0c8.8 0 16-7.2 16-16l0-32c0-8.8-7.2-16-16-16l-32 0c-8.8 0-16 7.2-16 16z"/></svg>

<svg xmlns="http://www.w3.org/2000/svg" viewBox="0 0 448 512"><!--! Font Awesome Pro 6.4.2 by @fontawesome - https://fontawesome.com License - https://fontawesome.com/license (Commercial License) Copyright 2023 Fonticons, Inc. --><path d="M48 44.8c1.8 0 3.2 1.4 3.2 3.2V80c0 1.8-1.4 3.2-3.2 3.2H16c-1.8 0-3.2-1.4-3.2-3.2V48c0-1.8 1.4-3.2 3.2-3.2H48zM16 32C7.2 32 0 39.2 0 48V80c0 8.8 7.2 16 16 16H48c8.8 0 16-7.2 16-16V48c0-8.8-7.2-16-16-16H16zM48 140.8c1.8 0 3.2 1.4 3.2 3.2v32c0 1.8-1.4 3.2-3.2 3.2H16c-1.8 0-3.2-1.4-3.2-3.2V144c0-1.8 1.4-3.2 3.2-3.2H48zM16 128c-8.8 0-16 7.2-16 16v32c0 8.8 7.2 16 16 16H48c8.8 0 16-7.2 16-16V144c0-8.8-7.2-16-16-16H16zm0 108.8H48c1.8 0 3.2 1.4 3.2 3.2v32c0 1.8-1.4 3.2-3.2 3.2H16c-1.8 0-3.2-1.4-3.2-3.2V240c0-1.8 1.4-3.2 3.2-3.2zM0 240v32c0 8.8 7.2 16 16 16H48c8.8 0 16-7.2 16-16V240c0-8.8-7.2-16-16-16H16c-8.8 0-16 7.2-16 16zm48 92.8c1.8 0 3.2 1.4 3.2 3.2v32c0 1.8-1.4 3.2-3.2 3.2H16c-1.8 0-3.2-1.4-3.2-3.2V336c0-1.8 1.4-3.2 3.2-3.2H48zM16 320c-8.8 0-16 7.2-16 16v32c0 8.8 7.2 16 16 16H48c8.8 0 16-7.2 16-16V336c0-8.8-7.2-16-16-16H16zm0 108.8H48c1.8 0 3.2 1.4 3.2 3.2v32c0 1.8-1.4 3.2-3.2 3.2H16c-1.8 0-3.2-1.4-3.2-3.2V432c0-1.8 1.4-3.2 3.2-3.2zM0 432v32c0 8.8 7.2 16 16 16H48c8.8 0 16-7.2 16-16V432c0-8.8-7.2-16-16-16H16c-8.8 0-16 7.2-16 16zM144 44.8c1.8 0 3.2 1.4 3.2 3.2V80c0 1.8-1.4 3.2-3.2 3.2H112c-1.8 0-3.2-1.4-3.2-3.2V48c0-1.8 1.4-3.2 3.2-3.2h32zM112 32c-8.8 0-16 7.2-16 16V80c0 8.8 7.2 16 16 16h32c8.8 0 16-7.2 16-16V48c0-8.8-7.2-16-16-16H112zm0 108.8h32c1.8 0 3.2 1.4 3.2 3.2v32c0 1.8-1.4 3.2-3.2 3.2H112c-1.8 0-3.2-1.4-3.2-3.2V144c0-1.8 1.4-3.2 3.2-3.2zM96 144v32c0 8.8 7.2 16 16 16h32c8.8 0 16-7.2 16-16V144c0-8.8-7.2-16-16-16H112c-8.8 0-16 7.2-16 16zm48 92.8c1.8 0 3.2 1.4 3.2 3.2v32c0 1.8-1.4 3.2-3.2 3.2H112c-1.8 0-3.2-1.4-3.2-3.2V240c0-1.8 1.4-3.2 3.2-3.2h32zM112 224c-8.8 0-16 7.2-16 16v32c0 8.8 7.2 16 16 16h32c8.8 0 16-7.2 16-16V240c0-8.8-7.2-16-16-16H112zm0 108.8h32c1.8 0 3.2 1.4 3.2 3.2v32c0 1.8-1.4 3.2-3.2 3.2H112c-1.8 0-3.2-1.4-3.2-3.2V336c0-1.8 1.4-3.2 3.2-3.2zM96 336v32c0 8.8 7.2 16 16 16h32c8.8 0 16-7.2 16-16V336c0-8.8-7.2-16-16-16H112c-8.8 0-16 7.2-16 16zm48 92.8c1.8 0 3.2 1.4 3.2 3.2v32c0 1.8-1.4 3.2-3.2 3.2H112c-1.8 0-3.2-1.4-3.2-3.2V432c0-1.8 1.4-3.2 3.2-3.2h32zM112 416c-8.8 0-16 7.2-16 16v32c0 8.8 7.2 16 16 16h32c8.8 0 16-7.2 16-16V432c0-8.8-7.2-16-16-16H112zM208 44.8h32c1.8 0 3.2 1.4 3.2 3.2V80c0 1.8-1.4 3.2-3.2 3.2H208c-1.8 0-3.2-1.4-3.2-3.2V48c0-1.8 1.4-3.2 3.2-3.2zM192 48V80c0 8.8 7.2 16 16 16h32c8.8 0 16-7.2 16-16V48c0-8.8-7.2-16-16-16H208c-8.8 0-16 7.2-16 16zm48 92.8c1.8 0 3.2 1.4 3.2 3.2v32c0 1.8-1.4 3.2-3.2 3.2H208c-1.8 0-3.2-1.4-3.2-3.2V144c0-1.8 1.4-3.2 3.2-3.2h32zM208 128c-8.8 0-16 7.2-16 16v32c0 8.8 7.2 16 16 16h32c8.8 0 16-7.2 16-16V144c0-8.8-7.2-16-16-16H208zm0 108.8h32c1.8 0 3.2 1.4 3.2 3.2v32c0 1.8-1.4 3.2-3.2 3.2H208c-1.8 0-3.2-1.4-3.2-3.2V240c0-1.8 1.4-3.2 3.2-3.2zM192 240v32c0 8.8 7.2 16 16 16h32c8.8 0 16-7.2 16-16V240c0-8.8-7.2-16-16-16H208c-8.8 0-16 7.2-16 16zm48 92.8c1.8 0 3.2 1.4 3.2 3.2v32c0 1.8-1.4 3.2-3.2 3.2H208c-1.8 0-3.2-1.4-3.2-3.2V336c0-1.8 1.4-3.2 3.2-3.2h32zM208 320c-8.8 0-16 7.2-16 16v32c0 8.8 7.2 16 16 16h32c8.8 0 16-7.2 16-16V336c0-8.8-7.2-16-16-16H208zm0 108.8h32c1.8 0 3.2 1.4 3.2 3.2v32c0 1.8-1.4 3.2-3.2 3.2H208c-1.8 0-3.2-1.4-3.2-3.2V432c0-1.8 1.4-3.2 3.2-3.2zM192 432v32c0 8.8 7.2 16 16 16h32c8.8 0 16-7.2 16-16V432c0-8.8-7.2-16-16-16H208c-8.8 0-16 7.2-16 16zM336 44.8c1.8 0 3.2 1.4 3.2 3.2V80c0 1.8-1.4 3.2-3.2 3.2H304c-1.8 0-3.2-1.4-3.2-3.2V48c0-1.8 1.4-3.2 3.2-3.2h32zM304 32c-8.8 0-16 7.2-16 16V80c0 8.8 7.2 16 16 16h32c8.8 0 16-7.2 16-16V48c0-8.8-7.2-16-16-16H304zm0 108.8h32c1.8 0 3.2 1.4 3.2 3.2v32c0 1.8-1.4 3.2-3.2 3.2H304c-1.8 0-3.2-1.4-3.2-3.2V144c0-1.8 1.4-3.2 3.2-3.2zM288 144v32c0 8.8 7.2 16 16 16h32c8.8 0 16-7.2 16-16V144c0-8.8-7.2-16-16-16H304c-8.8 0-16 7.2-16 16zm48 92.8c1.8 0 3.2 1.4 3.2 3.2v32c0 1.8-1.4 3.2-3.2 3.2H304c-1.8 0-3.2-1.4-3.2-3.2V240c0-1.8 1.4-3.2 3.2-3.2h32zM304 224c-8.8 0-16 7.2-16 16v32c0 8.8 7.2 16 16 16h32c8.8 0 16-7.2 16-16V240c0-8.8-7.2-16-16-16H304zm0 108.8h32c1.8 0 3.2 1.4 3.2 3.2v32c0 1.8-1.4 3.2-3.2 3.2H304c-1.8 0-3.2-1.4-3.2-3.2V336c0-1.8 1.4-3.2 3.2-3.2zM288 336v32c0 8.8 7.2 16 16 16h32c8.8 0 16-7.2 16-16V336c0-8.8-7.2-16-16-16H304c-8.8 0-16 7.2-16 16zm48 92.8c1.8 0 3.2 1.4 3.2 3.2v32c0 1.8-1.4 3.2-3.2 3.2H304c-1.8 0-3.2-1.4-3.2-3.2V432c0-1.8 1.4-3.2 3.2-3.2h32zM304 416c-8.8 0-16 7.2-16 16v32c0 8.8 7.2 16 16 16h32c8.8 0 16-7.2 16-16V432c0-8.8-7.2-16-16-16H304zM400 44.8h32c1.8 0 3.2 1.4 3.2 3.2V80c0 1.8-1.4 3.2-3.2 3.2H400c-1.8 0-3.2-1.4-3.2-3.2V48c0-1.8 1.4-3.2 3.2-3.2zM384 48V80c0 8.8 7.2 16 16 16h32c8.8 0 16-7.2 16-16V48c0-8.8-7.2-16-16-16H400c-8.8 0-16 7.2-16 16zm48 92.8c1.8 0 3.2 1.4 3.2 3.2v32c0 1.8-1.4 3.2-3.2 3.2H400c-1.8 0-3.2-1.4-3.2-3.2V144c0-1.8 1.4-3.2 3.2-3.2h32zM400 128c-8.8 0-16 7.2-16 16v32c0 8.8 7.2 16 16 16h32c8.8 0 16-7.2 16-16V144c0-8.8-7.2-16-16-16H400zm0 108.8h32c1.8 0 3.2 1.4 3.2 3.2v32c0 1.8-1.4 3.2-3.2 3.2H400c-1.8 0-3.2-1.4-3.2-3.2V240c0-1.8 1.4-3.2 3.2-3.2zM384 240v32c0 8.8 7.2 16 16 16h32c8.8 0 16-7.2 16-16V240c0-8.8-7.2-16-16-16H400c-8.8 0-16 7.2-16 16zm48 92.8c1.8 0 3.2 1.4 3.2 3.2v32c0 1.8-1.4 3.2-3.2 3.2H400c-1.8 0-3.2-1.4-3.2-3.2V336c0-1.8 1.4-3.2 3.2-3.2h32zM400 320c-8.8 0-16 7.2-16 16v32c0 8.8 7.2 16 16 16h32c8.8 0 16-7.2 16-16V336c0-8.8-7.2-16-16-16H400zm0 108.8h32c1.8 0 3.2 1.4 3.2 3.2v32c0 1.8-1.4 3.2-3.2 3.2H400c-1.8 0-3.2-1.4-3.2-3.2V432c0-1.8 1.4-3.2 3.2-3.2zM384 432v32c0 8.8 7.2 16 16 16h32c8.8 0 16-7.2 16-16V432c0-8.8-7.2-16-16-16H400c-8.8 0-16 7.2-16 16z"/></svg>
